X:1
T:When Sick is it Tea You Want
R:jig
M:6/8
L:1/8
K:D
Add dcB|ABA AFG|Add cde|fdf ecA|
Add dcB|ABA AFG|Add cde|1 fdd d2B:|2 fdd dfg|]
afd dcd|BGG Gga|bge ede|cAA AFG|
Add dcB|ABA AFG|Add cde|1 fdd dfg:|2 fdd d2B|]
</abc>



